svg/idioma.svg

<svg width="30" height="30" viewBox="0 0 30 30" fill="none" xmlns="http://www.w3.org/2000/svg">
<path d="M0 3.75C0 2.75544 0.395088 1.80161 1.09835 1.09835C1.80161 0.395088 2.75544 0 3.75 0L16.875 0C17.8696 0 18.8234 0.395088 19.5266 1.09835C20.2299 1.80161 20.625 2.75544 20.625 3.75V9.375H26.25C27.2446 9.375 28.1984 9.77009 28.9016 10.4733C29.6049 11.1766 30 12.1304 30 13.125V26.25C30 27.2446 29.6049 28.1984 28.9016 28.9016C28.1984 29.6049 27.2446 30 26.25 30H13.125C12.1304 30 11.1766 29.6049 10.4733 28.9016C9.77009 28.1984 9.375 27.2446 9.375 26.25V20.625H3.75C2.75544 20.625 1.80161 20.2299 1.09835 19.5266C0.395088 18.8234 0 17.8696 0 16.875V3.75ZM3.75 1.875C3.25272 1.875 2.77581 2.07254 2.42417 2.42417C2.07254 2.77581 1.875 3.25272 1.875 3.75V16.875C1.875 17.3723 2.07254 17.8492 2.42417 18.2008C2.77581 18.5525 3.25272 18.75 3.75 18.75H16.875C17.3723 18.75 17.8492 18.5525 18.2008 18.2008C18.5525 17.8492 18.75 17.3723 18.75 16.875V3.75C18.75 3.25272 18.5525 2.77581 18.2008 2.42417C17.8492 2.07254 17.3723 1.875 16.875 1.875H3.75ZM17.1337 20.6156C17.4956 21.18 17.8875 21.7087 18.315 22.2019C16.9125 23.28 15.1781 24.0788 13.125 24.6244C13.4587 25.0312 13.9706 25.815 14.1656 26.25C16.275 25.5769 18.0656 24.6675 19.5769 23.4487C21.0338 24.6956 22.8375 25.6331 25.0706 26.2087C25.32 25.7325 25.8469 24.9469 26.25 24.54C24.1406 24.0656 22.3931 23.2388 20.9625 22.1325C22.2394 20.7319 23.2537 19.0369 24.0019 16.9631H26.25V15H20.625V16.9631H22.0594C21.4631 18.5456 20.6719 19.8619 19.6744 20.9569C19.3989 20.6634 19.1391 20.3554 18.8962 20.0344C18.3671 20.3736 17.7609 20.5736 17.1337 20.6156Z" fill="#3E2BAD"/>
</svg>

<svg width="30" height="30" fill="none" xmlns="http://www.w3.org/2000/svg"><path d="M0 3.75A3.75 3.75 0 0 1 3.75 0h13.13a3.75 3.75 0 0 1 3.75 3.75v5.63h5.62A3.75 3.75 0 0 1 30 13.12v13.13A3.75 3.75 0 0 1 26.25 30H13.12a3.75 3.75 0 0 1-3.74-3.75v-5.63H3.75A3.75 3.75 0 0 1 0 16.88V3.76Zm3.75-1.88a1.88 1.88 0 0 0-1.88 1.88v13.13a1.87 1.87 0 0 0 1.88 1.87h13.13a1.87 1.87 0 0 0 1.87-1.88V3.76a1.87 1.87 0 0 0-1.88-1.88H3.76Zm13.38 18.75c.37.56.76 1.09 1.19 1.58a14.54 14.54 0 0 1-5.2 2.42c.34.41.85 1.2 1.05 1.63 2.1-.67 3.9-1.58 5.4-2.8a13.43 13.43 0 0 0 5.5 2.76c.25-.48.78-1.26 1.18-1.67-2.1-.47-3.86-1.3-5.29-2.4 1.28-1.4 2.3-3.1 3.04-5.18h2.25V15h-5.63v1.96h1.44c-.6 1.59-1.39 2.9-2.39 4-.27-.3-.53-.6-.77-.93-.53.34-1.14.54-1.77.59Z" fill="#3E2BAD"/></svg>
